build/img/products/figma-icon.svg

<svg width="40" height="40" viewBox="0 0 40 40" fill="none" xmlns="http://www.w3.org/2000/svg">
<rect width="40" height="40" rx="8" fill="#1E1E1E"/>
<g clip-path="url(#clip0_2247_255)">
<path d="M20 20.0007C20 18.763 20.4741 17.576 21.318 16.7008C22.1619 15.8256 23.3065 15.334 24.5 15.334C25.6935 15.334 26.8381 15.8256 27.682 16.7008C28.5259 17.576 29 18.763 29 20.0007C29 21.2383 28.5259 22.4253 27.682 23.3005C26.8381 24.1757 25.6935 24.6673 24.5 24.6673C23.3065 24.6673 22.1619 24.1757 21.318 23.3005C20.4741 22.4253 20 21.2383 20 20.0007V20.0007Z" fill="#1ABCFE"/>
<path d="M11 29.3327C11 28.095 11.4741 26.908 12.318 26.0329C13.1619 25.1577 14.3065 24.666 15.5 24.666H20V29.3327C20 30.5704 19.5259 31.7573 18.682 32.6325C17.8381 33.5077 16.6935 33.9993 15.5 33.9993C14.3065 33.9993 13.1619 33.5077 12.318 32.6325C11.4741 31.7573 11 30.5704 11 29.3327V29.3327Z" fill="#0ACF83"/>
<path d="M20 6V15.3333H24.5C25.6935 15.3333 26.8381 14.8417 27.682 13.9665C28.5259 13.0913 29 11.9043 29 10.6667C29 9.42899 28.5259 8.242 27.682 7.36683C26.8381 6.49167 25.6935 6 24.5 6H20Z" fill="#FF7262"/>
<path d="M11 10.6667C11 11.9043 11.4741 13.0913 12.318 13.9665C13.1619 14.8417 14.3065 15.3333 15.5 15.3333H20V6H15.5C14.3065 6 13.1619 6.49167 12.318 7.36683C11.4741 8.242 11 9.42899 11 10.6667V10.6667Z" fill="#F24E1E"/>
<path d="M11 20.0007C11 21.2383 11.4741 22.4253 12.318 23.3005C13.1619 24.1757 14.3065 24.6673 15.5 24.6673H20V15.334H15.5C14.3065 15.334 13.1619 15.8256 12.318 16.7008C11.4741 17.576 11 18.763 11 20.0007V20.0007Z" fill="#A259FF"/>
</g>
<defs>
<clipPath id="clip0_2247_255">
<rect width="18" height="28" fill="white" transform="translate(11 6)"/>
</clipPath>
</defs>
</svg>

<svg width="40" height="40" fill="none" xmlns="http://www.w3.org/2000/svg"><rect width="40" height="40" rx="8" fill="#1E1E1E"/><g clip-path="url(#clip0_2247_255)"><path d="M20 20c0-1.237.474-2.424 1.318-3.3a4.42 4.42 0 013.182-1.366 4.42 4.42 0 013.182 1.367A4.756 4.756 0 0129 20a4.756 4.756 0 01-1.318 3.3 4.42 4.42 0 01-3.182 1.366 4.42 4.42 0 01-3.182-1.367A4.756 4.756 0 0120 20z" fill="#1ABCFE"/><path d="M11 29.333c0-1.238.474-2.425 1.318-3.3a4.42 4.42 0 013.182-1.367H20v4.667a4.756 4.756 0 01-1.318 3.3 4.42 4.42 0 01-3.182 1.366 4.42 4.42 0 01-3.182-1.367 4.756 4.756 0 01-1.318-3.3z" fill="#0ACF83"/><path d="M20 6v9.333h4.5a4.42 4.42 0 003.182-1.367 4.756 4.756 0 001.318-3.3 4.756 4.756 0 00-1.318-3.3A4.42 4.42 0 0024.5 6H20z" fill="#FF7262"/><path d="M11 10.667c0 1.237.474 2.424 1.318 3.3a4.42 4.42 0 003.182 1.366H20V6h-4.5a4.42 4.42 0 00-3.182 1.367 4.756 4.756 0 00-1.318 3.3z" fill="#F24E1E"/><path d="M11 20c0 1.238.474 2.425 1.318 3.3a4.42 4.42 0 003.182 1.367H20v-9.333h-4.5a4.42 4.42 0 00-3.182 1.367A4.756 4.756 0 0011 20z" fill="#A259FF"/></g><defs><clipPath id="clip0_2247_255"><path fill="#fff" transform="translate(11 6)" d="M0 0h18v28H0z"/></clipPath></defs></svg>
